X:1
T:Goodbye to the 30-Foot Trailer
M:6/8
L:1/8
K:A
 E| CB,C A,CD| EAG E2 D| CB,C A,CE| A3 E2 E| ABc BAG| AGE DCD| EAG ECA,|\
 D3 C2 C| EAA ABc| dcd BcB| AGE DCD| EAG ECD| EAG ECA,| D3 C2||

